packages/bezier-icons/icons/play.svg

<svg width="24" height="24" viewBox="0 0 24 24" fill="none" xmlns="http://www.w3.org/2000/svg">
<path fill-rule="evenodd" clip-rule="evenodd" d="M8.58124 5.07266C7.91937 4.5999 7 5.07302 7 5.88639V18.1136C7 18.927 7.91937 19.4001 8.58124 18.9274L17.1403 12.8137C17.6987 12.4149 17.6987 11.5851 17.1403 11.1863L8.58124 5.07266ZM5 5.88639C5 3.44627 7.75811 2.0269 9.74371 3.44519L18.3028 9.55881C19.9778 10.7553 19.9778 13.2448 18.3028 14.4412L9.74371 20.5548C7.75811 21.9731 5 20.5538 5 18.1136V5.88639Z" fill="#313234"/>
</svg>

<svg xmlns="http://www.w3.org/2000/svg" width="24" height="24" fill="none" viewBox="0 0 24 24"><path fill="#313234" fill-rule="evenodd" d="M8.581 5.073A1 1 0 0 0 7 5.886v12.228a1 1 0 0 0 1.581.813l8.56-6.113a1 1 0 0 0 0-1.628zM5 5.886c0-2.44 2.758-3.86 4.744-2.44l8.559 6.113a3 3 0 0 1 0 4.882l-8.56 6.114C7.759 21.973 5 20.554 5 18.114z" clip-rule="evenodd"/></svg>
